X:1
T:E Major Scale
M:4/4
L:1/8
K:Emaj
E2FG ABcd | edcB AGFE | F2GA Bcde | fedc BAGF |
G2AB cdef | gfed cBAG | A2Bc defg | agfe dcBA |
B2cd efga | bagf edcB | c2de fgab | c'bag fedc |
d2ef gabc' | d'c'ba gfed | e4 z4 |
e'2d'c' bagf| efga bc'd'e'| d'2c'b agfe | defg abc'd' |
c'2ba gfed | cdef gabc' | b2ag fedc | Bcde fgab |
a2gf edcB | ABcd efga | g2fe dcBA | GABc defg |
f2ed cBAG | FGAB cdef | e8 |]

